images/portal/5809.svg

<?xml version="1.0" standalone="no"?><!DOCTYPE svg PUBLIC "-//W3C//DTD SVG 1.1//EN" "http://www.w3.org/Graphics/SVG/1.1/DTD/svg11.dtd"><svg xmlns:xlink="http://www.w3.org/1999/xlink" version="1.1" class="highcharts-root" style="font-family:arial;font-size:12px;" xmlns="http://www.w3.org/2000/svg" width="485" height="415"><desc>Created with Highstock 5.0.14</desc><defs><clipPath id="highcharts-zkdoe7z-8"><rect x="0" y="0" width="380" height="265" fill="none"></rect></clipPath><clipPath id="highcharts-zkdoe7z-9"><rect x="0" y="0" width="380" height="265" fill="none"></rect></clipPath><clipPath id="highcharts-zkdoe7z-10"><rect x="0" y="0" width="380" height="265" fill="none"></rect></clipPath></defs><rect fill="#fbfbfb" class="highcharts-background" x="0" y="0" width="485" height="415" rx="0" ry="0"></rect><rect fill="none" class="highcharts-plot-background" x="65" y="75" width="380" height="265"></rect><g class="highcharts-pane-group"></g><g class="highcharts-grid highcharts-xaxis-grid "><path fill="none" class="highcharts-grid-line" d="M 74.5 75 L 74.5 340" opacity="1"></path><path fill="none" class="highcharts-grid-line" d="M 112.5 75 L 112.5 340" opacity="1"></path><path fill="none" class="highcharts-grid-line" d="M 150.5 75 L 150.5 340" opacity="1"></path><path fill="none" class="highcharts-grid-line" d="M 188.5 75 L 188.5 340" opacity="1"></path><path fill="none" class="highcharts-grid-line" d="M 226.5 75 L 226.5 340" opacity="1"></path><path fill="none" class="highcharts-grid-line" d="M 264.5 75 L 264.5 340" opacity="1"></path><path fill="none" class="highcharts-grid-line" d="M 302.5 75 L 302.5 340" opacity="1"></path><path fill="none" class="highcharts-grid-line" d="M 340.5 75 L 340.5 340" opacity="1"></path><path fill="none" class="highcharts-grid-line" d="M 378.5 75 L 378.5 340" opacity="1"></path><path fill="none" class="highcharts-grid-line" d="M 416.5 75 L 416.5 340" opacity="1"></path></g><g class="highcharts-grid highcharts-yaxis-grid "><path fill="none" stroke="#e6e6e6" stroke-width="1" class="highcharts-grid-line" d="M 65 340.5 L 445 340.5" opacity="1"></path><path fill="none" stroke="#e6e6e6" stroke-width="1" class="highcharts-grid-line" d="M 65 274.5 L 445 274.5" opacity="1"></path><path fill="none" stroke="#e6e6e6" stroke-width="1" class="highcharts-grid-line" d="M 65 208.5 L 445 208.5" opacity="1"></path><path fill="none" stroke="#e6e6e6" stroke-width="1" class="highcharts-grid-line" d="M 65 141.5 L 445 141.5" opacity="1"></path><path fill="none" stroke="#e6e6e6" stroke-width="1" class="highcharts-grid-line" d="M 65 74.5 L 445 74.5" opacity="1"></path></g><g class="highcharts-grid highcharts-yaxis-grid "><path fill="none" stroke="#e6e6e6" stroke-width="1" class="highcharts-grid-line" d="M 65 340.5 L 445 340.5" opacity="1"></path><path fill="none" stroke="#e6e6e6" stroke-width="1" class="highcharts-grid-line" d="M 65 274.5 L 445 274.5" opacity="1"></path><path fill="none" stroke="#e6e6e6" stroke-width="1" class="highcharts-grid-line" d="M 65 208.5 L 445 208.5" opacity="1"></path><path fill="none" stroke="#e6e6e6" stroke-width="1" class="highcharts-grid-line" d="M 65 141.5 L 445 141.5" opacity="1"></path><path fill="none" stroke="#e6e6e6" stroke-width="1" class="highcharts-grid-line" d="M 65 74.5 L 445 74.5" opacity="1"></path></g><rect fill="none" class="highcharts-plot-border" x="65" y="75" width="380" height="265"></rect><g class="highcharts-axis highcharts-xaxis "><path fill="none" class="highcharts-axis-line" stroke="#B9CFD7" stroke-width="0.5" d="M 65 340.25 L 445 340.25"></path></g><g class="highcharts-axis highcharts-yaxis "><path fill="none" class="highcharts-axis-line" d="M 65 75 L 65 340"></path></g><g class="highcharts-axis highcharts-yaxis "><path fill="none" class="highcharts-axis-line" d="M 445 75 L 445 340"></path></g><g class="highcharts-series-group"><g class="highcharts-series highcharts-series-0 highcharts-column-series highcharts-color-undefined " transform="translate(65,75) scale(1 1)" clip-path="url(#highcharts-zkdoe7z-9)"><rect x="5" y="52" width="10" height="57" fill="#71A3B5" class="highcharts-point"></rect><rect x="24" y="54" width="10" height="57" fill="#71A3B5" class="highcharts-point"></rect><rect x="43" y="56" width="10" height="58" fill="#71A3B5" class="highcharts-point"></rect><rect x="62" y="58" width="10" height="57" fill="#71A3B5" class="highcharts-point"></rect><rect x="81" y="59" width="10" height="58" fill="#71A3B5" class="highcharts-point"></rect><rect x="100" y="58" width="10" height="60" fill="#71A3B5" class="highcharts-point"></rect><rect x="119" y="58" width="10" height="61" fill="#71A3B5" class="highcharts-point"></rect><rect x="138" y="58" width="10" height="62" fill="#71A3B5" class="highcharts-point"></rect><rect x="157" y="59" width="10" height="63" fill="#71A3B5" class="highcharts-point"></rect><rect x="176" y="59" width="10" height="64" fill="#71A3B5" class="highcharts-point"></rect><rect x="195" y="58" width="10" height="65" fill="#71A3B5" class="highcharts-point"></rect><rect x="214" y="57" width="10" height="66" fill="#71A3B5" class="highcharts-point"></rect><rect x="233" y="55" width="10" height="69" fill="#71A3B5" class="highcharts-point"></rect><rect x="252" y="55" width="10" height="69" fill="#71A3B5" class="highcharts-point"></rect><rect x="271" y="54" width="10" height="71" fill="#71A3B5" class="highcharts-point"></rect><rect x="290" y="52" width="10" height="73" fill="#71A3B5" class="highcharts-point"></rect><rect x="309" y="50" width="10" height="75" fill="#71A3B5" class="highcharts-point"></rect><rect x="328" y="49" width="10" height="76" fill="#71A3B5" class="highcharts-point"></rect><rect x="347" y="48" width="10" height="77" fill="#71A3B5" class="highcharts-point"></rect><rect x="366" y="47" width="10" height="78" fill="#71A3B5" class="highcharts-point"></rect></g><g class="highcharts-markers highcharts-series-0 highcharts-column-series highcharts-color-undefined " transform="translate(65,75) scale(1 1)" clip-path="none"></g><g class="highcharts-series highcharts-series-1 highcharts-column-series highcharts-color-undefined " transform="translate(65,75) scale(1 1)" clip-path="url(#highcharts-zkdoe7z-9)"><rect x="5" y="109" width="10" height="157" fill="#990300" class="highcharts-point"></rect><rect x="24" y="111" width="10" height="155" fill="#990300" class="highcharts-point"></rect><rect x="43" y="114" width="10" height="152" fill="#990300" class="highcharts-point"></rect><rect x="62" y="115" width="10" height="151" fill="#990300" class="highcharts-point"></rect><rect x="81" y="117" width="10" height="149" fill="#990300" class="highcharts-point"></rect><rect x="100" y="118" width="10" height="148" fill="#990300" class="highcharts-point"></rect><rect x="119" y="119" width="10" height="147" fill="#990300" class="highcharts-point"></rect><rect x="138" y="120" width="10" height="146" fill="#990300" class="highcharts-point"></rect><rect x="157" y="122" width="10" height="144" fill="#990300" class="highcharts-point"></rect><rect x="176" y="123" width="10" height="143" fill="#990300" class="highcharts-point"></rect><rect x="195" y="123" width="10" height="143" fill="#990300" class="highcharts-point"></rect><rect x="214" y="123" width="10" height="143" fill="#990300" class="highcharts-point"></rect><rect x="233" y="124" width="10" height="142" fill="#990300" class="highcharts-point"></rect><rect x="252" y="124" width="10" height="142" fill="#990300" class="highcharts-point"></rect><rect x="271" y="125" width="10" height="141" fill="#990300" class="highcharts-point"></rect><rect x="290" y="125" width="10" height="141" fill="#990300" class="highcharts-point"></rect><rect x="309" y="125" width="10" height="141" fill="#990300" class="highcharts-point"></rect><rect x="328" y="125" width="10" height="141" fill="#990300" class="highcharts-point"></rect><rect x="347" y="125" width="10" height="141" fill="#990300" class="highcharts-point"></rect><rect x="366" y="125" width="10" height="141" fill="#990300" class="highcharts-point"></rect></g><g class="highcharts-markers highcharts-series-1 highcharts-column-series highcharts-color-undefined " transform="translate(65,75) scale(1 1)" clip-path="none"></g><g class="highcharts-series highcharts-series-2 highcharts-line-series highcharts-color-undefined " transform="translate(65,75) scale(1 1)" clip-path="url(#highcharts-zkdoe7z-10)"><path fill="none" d="M 9.5 87.74263460544998 L 28.5 86.037653353975 L 47.5 82.6584087599625 L 66.5 82.41824468053753 L 85.5 78.98585824130001 L 104.5 73.71838683097499 L 123.5 69.79423578622499 L 142.5 66.47531263805001 L 161.5 63.366193061225005 L 180.5 58.35328448544999 L 199.5 57.37672872358752 L 218.5 54.14608347980001 L 237.5 49.12808217443751 L 256.5 47.686361040287494 L 275.5 43.926375497437505 L 294.5 40.60290552563751 L 313.5 36.03535779890001 L 332.5 33.077286215362506 L 351.5 31.224886412587495 L 370.5 28.32553000454999" class="highcharts-graph" stroke="#000000" stroke-width="2" stroke-linejoin="round" stroke-linecap="round"></path></g><g class="highcharts-markers highcharts-series-2 highcharts-line-series highcharts-color-undefined " transform="translate(65,75) scale(1 1)" clip-path="none"></g></g><text x="10" text-anchor="start" class="highcharts-title" style="color:#000000;font-size:14px;font-weight:bold;fill:#000000;" y="21"><tspan>Bevölkerung am Jahresende nach Herkunft</tspan></text><g class="highcharts-legend" transform="translate(55,45)"><rect fill="none" class="highcharts-legend-box" rx="0" ry="0" x="0" y="0" width="289" height="30" visibility="visible"></rect><g><g><g class="highcharts-legend-item highcharts-column-series highcharts-color-undefined highcharts-series-1" transform="translate(8,3)"><text x="21" style="color:#333333;font-size:12px;font-weight:normal;cursor:pointer;fill:#333333;" text-anchor="start" y="15"><tspan>Schweiz</tspan></text><rect x="2" y="4" width="12" height="12" fill="#990300" class="highcharts-point"></rect></g><g class="highcharts-legend-item highcharts-column-series highcharts-color-undefined highcharts-series-0" transform="translate(93.65625,3)"><text x="21" y="15" style="color:#333333;font-size:12px;font-weight:normal;cursor:pointer;fill:#333333;" text-anchor="start"><tspan>Ausland</tspan></text><rect x="2" y="4" width="12" height="12" fill="#71A3B5" class="highcharts-point"></rect></g><g class="highcharts-legend-item highcharts-line-series highcharts-color-undefined highcharts-series-2" transform="translate(178,3)"><path fill="none" d="M 0 11 L 16 11" class="highcharts-graph" stroke="#000000" stroke-width="2"></path><text x="21" y="15" style="color:#333333;font-size:12px;font-weight:normal;cursor:pointer;fill:#333333;" text-anchor="start"><tspan>Ausländeranteil</tspan></text></g></g></g></g><g class="highcharts-axis-labels highcharts-xaxis-labels "><text x="74.5" style="color:#000000;cursor:default;font-size:11px;fill:#000000;" text-anchor="middle" transform="translate(0,0)" y="359" opacity="1">1997</text><text x="112.5" style="color:#000000;cursor:default;font-size:11px;fill:#000000;" text-anchor="middle" transform="translate(0,0)" y="359" opacity="1">1999</text><text x="150.5" style="color:#000000;cursor:default;font-size:11px;fill:#000000;" text-anchor="middle" transform="translate(0,0)" y="359" opacity="1">2001</text><text x="188.5" style="color:#000000;cursor:default;font-size:11px;fill:#000000;" text-anchor="middle" transform="translate(0,0)" y="359" opacity="1">2003</text><text x="226.5" style="color:#000000;cursor:default;font-size:11px;fill:#000000;" text-anchor="middle" transform="translate(0,0)" y="359" opacity="1">2005</text><text x="264.5" style="color:#000000;cursor:default;font-size:11px;fill:#000000;" text-anchor="middle" transform="translate(0,0)" y="359" opacity="1">2007</text><text x="302.5" style="color:#000000;cursor:default;font-size:11px;fill:#000000;" text-anchor="middle" transform="translate(0,0)" y="359" opacity="1">2009</text><text x="340.5" style="color:#000000;cursor:default;font-size:11px;fill:#000000;" text-anchor="middle" transform="translate(0,0)" y="359" opacity="1">2011</text><text x="378.5" style="color:#000000;cursor:default;font-size:11px;fill:#000000;" text-anchor="middle" transform="translate(0,0)" y="359" opacity="1">2013</text><text x="416.5" style="color:#000000;cursor:default;font-size:11px;fill:#000000;" text-anchor="middle" transform="translate(0,0)" y="359" opacity="1">2015</text></g><g class="highcharts-axis-labels highcharts-yaxis-labels "><text x="50" style="color:#666666;cursor:default;font-size:11px;fill:#666666;" text-anchor="end" transform="translate(0,0)" y="345" opacity="1"><tspan>0</tspan></text><text x="50" style="color:#666666;cursor:default;font-size:11px;fill:#666666;" text-anchor="end" transform="translate(0,0)" y="278" opacity="1"><tspan>60 000</tspan></text><text x="50" style="color:#666666;cursor:default;font-size:11px;fill:#666666;" text-anchor="end" transform="translate(0,0)" y="212" opacity="1"><tspan>120 000</tspan></text><text x="50" style="color:#666666;cursor:default;font-size:11px;fill:#666666;" text-anchor="end" transform="translate(0,0)" y="146" opacity="1"><tspan>180 000</tspan></text><text x="50" style="color:#666666;cursor:default;font-size:11px;fill:#666666;" text-anchor="end" transform="translate(0,0)" y="80" opacity="1"><tspan>240 000</tspan></text></g><g class="highcharts-axis-labels highcharts-yaxis-labels "><text x="460" style="color:#666666;cursor:default;font-size:11px;fill:#666666;" text-anchor="start" transform="translate(0,0)" y="345" opacity="1"><tspan>0.0</tspan></text><text x="460" style="color:#666666;cursor:default;font-size:11px;fill:#666666;" text-anchor="start" transform="translate(0,0)" y="278" opacity="1"><tspan>0.1</tspan></text><text x="460" style="color:#666666;cursor:default;font-size:11px;fill:#666666;" text-anchor="start" transform="translate(0,0)" y="212" opacity="1"><tspan>0.2</tspan></text><text x="460" style="color:#666666;cursor:default;font-size:11px;fill:#666666;" text-anchor="start" transform="translate(0,0)" y="146" opacity="1"><tspan>0.3</tspan></text><text x="460" style="color:#666666;cursor:default;font-size:11px;fill:#666666;" text-anchor="start" transform="translate(0,0)" y="80" opacity="1"><tspan>0.4</tspan></text></g><text x="10" class="highcharts-credits" text-anchor="start" style="cursor:default;color:#000000;font-size:10px;fill:#000000;" y="400"><tspan>Quelle: Statistisches Amt Basel-Stadt, kantonale Bevölkerungsstatistik</tspan></text></svg>

<svg class="highcharts-root" xmlns="http://www.w3.org/2000/svg" width="485" height="415" font-family="arial" font-size="12">
    <defs>
        <clipPath id="a">
            <path fill="none" d="M0 0h380v265H0z"/>
        </clipPath>
        <clipPath id="b">
            <path fill="none" d="M0 0h380v265H0z"/>
        </clipPath>
    </defs>
    <rect fill="#fbfbfb" class="highcharts-background" width="485" height="415" rx="0" ry="0"/>
    <path fill="none" class="highcharts-plot-background" d="M65 75h380v265H65z"/>
    <g class="highcharts-grid highcharts-xaxis-grid">
        <path fill="none" class="highcharts-grid-line" d="M74.5 75v265m38-265v265m38-265v265m38-265v265m38-265v265m38-265v265m38-265v265m38-265v265m38-265v265m38-265v265"/>
    </g>
    <g class="highcharts-grid highcharts-yaxis-grid">
        <path fill="none" stroke="#e6e6e6" class="highcharts-grid-line" d="M65 340.5h380m-380-66h380m-380-66h380m-380-67h380m-380-67h380"/>
    </g>
    <g class="highcharts-grid highcharts-yaxis-grid">
        <path fill="none" stroke="#e6e6e6" class="highcharts-grid-line" d="M65 340.5h380m-380-66h380m-380-66h380m-380-67h380m-380-67h380"/>
    </g>
    <path fill="none" class="highcharts-plot-border" d="M65 75h380v265H65z"/>
    <g class="highcharts-axis highcharts-xaxis">
        <path fill="none" class="highcharts-axis-line" stroke="#B9CFD7" stroke-width=".5" d="M65 340.25h380"/>
    </g>
    <g class="highcharts-axis highcharts-yaxis">
        <path fill="none" class="highcharts-axis-line" d="M65 75v265"/>
    </g>
    <g class="highcharts-axis highcharts-yaxis">
        <path fill="none" class="highcharts-axis-line" d="M445 75v265"/>
    </g>
    <g class="highcharts-series-group">
        <g class="highcharts-series highcharts-series-0 highcharts-column-series highcharts-color-undefined" transform="translate(65 75)" clip-path="url(#a)">
            <path fill="#71A3B5" class="highcharts-point" d="M5 52h10v57H5zm19 2h10v57H24zm19 2h10v58H43zm19 2h10v57H62zm19 1h10v58H81zm19-1h10v60h-10zm19 0h10v61h-10zm19 0h10v62h-10zm19 1h10v63h-10zm19 0h10v64h-10zm19-1h10v65h-10zm19-1h10v66h-10zm19-2h10v69h-10zm19 0h10v69h-10zm19-1h10v71h-10zm19-2h10v73h-10zm19-2h10v75h-10zm19-1h10v76h-10zm19-1h10v77h-10zm19-1h10v78h-10z"/>
        </g>
        <g class="highcharts-series highcharts-series-1 highcharts-column-series highcharts-color-undefined" transform="translate(65 75)" clip-path="url(#a)">
            <path fill="#990300" class="highcharts-point" d="M5 109h10v157H5zm19 2h10v155H24zm19 3h10v152H43zm19 1h10v151H62zm19 2h10v149H81zm19 1h10v148h-10zm19 1h10v147h-10zm19 1h10v146h-10zm19 2h10v144h-10zm19 1h10v143h-10zm19 0h10v143h-10zm19 0h10v143h-10zm19 1h10v142h-10zm19 0h10v142h-10zm19 1h10v141h-10zm19 0h10v141h-10zm19 0h10v141h-10zm19 0h10v141h-10zm19 0h10v141h-10zm19 0h10v141h-10z"/>
        </g>
        <g class="highcharts-series highcharts-series-2 highcharts-line-series highcharts-color-undefined" transform="translate(65 75)" clip-path="url(#b)">
            <path fill="none" d="M9.5 87.743l19-1.705 19-3.38 19-.24 19-3.432 19-5.268 19-3.924 19-3.319 19-3.109 19-5.013 19-.976 19-3.23 19-5.019 19-1.442 19-3.76 19-3.323 19-4.568 19-2.958 19-1.852 19-2.9" class="highcharts-graph" stroke="#000" stroke-width="2" stroke-linejoin="round" stroke-linecap="round"/>
        </g>
    </g>
    <text x="10" class="highcharts-title" y="21" color="#000" font-size="14" font-weight="700">
        <tspan>Bevölkerung am Jahresende nach Herkunft</tspan>
    </text>
    <g class="highcharts-legend" transform="translate(55 45)">
        <rect fill="none" class="highcharts-legend-box" rx="0" ry="0" width="289" height="30"/>
        <g class="highcharts-legend-item highcharts-column-series highcharts-color-undefined highcharts-series-1">
            <text x="21" y="15" color="#333" font-weight="400" cursor="pointer" fill="#333" transform="translate(8 3)">
                <tspan>Schweiz</tspan>
            </text>
            <path fill="#990300" class="highcharts-point" d="M10 7h12v12H10z"/>
        </g>
        <g class="highcharts-legend-item highcharts-column-series highcharts-color-undefined highcharts-series-0">
            <text x="21" y="15" color="#333" font-weight="400" cursor="pointer" fill="#333" transform="translate(93.656 3)">
                <tspan>Ausland</tspan>
            </text>
            <path fill="#71A3B5" class="highcharts-point" d="M95.656 7h12v12h-12z"/>
        </g>
        <g class="highcharts-legend-item highcharts-line-series highcharts-color-undefined highcharts-series-2">
            <path fill="none" d="M178 14h16" class="highcharts-graph" stroke="#000" stroke-width="2"/>
            <text x="21" y="15" color="#333" font-weight="400" cursor="pointer" fill="#333" transform="translate(178 3)">
                <tspan>Ausländeranteil</tspan>
            </text>
        </g>
    </g>
    <g class="highcharts-axis-labels highcharts-xaxis-labels" text-anchor="middle" color="#000" cursor="default" font-size="11">
        <text x="74.5" y="359">
            1997
        </text>
        <text x="112.5" y="359">
            1999
        </text>
        <text x="150.5" y="359">
            2001
        </text>
        <text x="188.5" y="359">
            2003
        </text>
        <text x="226.5" y="359">
            2005
        </text>
        <text x="264.5" y="359">
            2007
        </text>
        <text x="302.5" y="359">
            2009
        </text>
        <text x="340.5" y="359">
            2011
        </text>
        <text x="378.5" y="359">
            2013
        </text>
        <text x="416.5" y="359">
            2015
        </text>
    </g>
    <g class="highcharts-axis-labels highcharts-yaxis-labels" text-anchor="end" color="#666" cursor="default" font-size="11" fill="#666">
        <text x="50" y="345">
            <tspan>0</tspan>
        </text>
        <text x="50" y="278">
            <tspan>60 000</tspan>
        </text>
        <text x="50" y="212">
            <tspan>120 000</tspan>
        </text>
        <text x="50" y="146">
            <tspan>180 000</tspan>
        </text>
        <text x="50" y="80">
            <tspan>240 000</tspan>
        </text>
    </g>
    <g class="highcharts-axis-labels highcharts-yaxis-labels" color="#666" cursor="default" font-size="11" fill="#666">
        <text x="460" y="345">
            <tspan>0.0</tspan>
        </text>
        <text x="460" y="278">
            <tspan>0.1</tspan>
        </text>
        <text x="460" y="212">
            <tspan>0.2</tspan>
        </text>
        <text x="460" y="146">
            <tspan>0.3</tspan>
        </text>
        <text x="460" y="80">
            <tspan>0.4</tspan>
        </text>
    </g>
    <text x="10" class="highcharts-credits" y="400" cursor="default" color="#000" font-size="10">
        <tspan>Quelle: Statistisches Amt Basel-Stadt, kantonale Bevölkerungsstatistik</tspan>
    </text>
</svg>
